packages/foundations/assets/icons/functional/images/maps/navigation_u_turn_32.svg

<svg width="32" height="32" viewBox="0 0 32 32" fill="none" xmlns="http://www.w3.org/2000/svg">
<g clip-path="url(#clip0_2213_5424)">
<path fill-rule="evenodd" clip-rule="evenodd" d="M13.5 4C16.8137 4 19.5 6.68629 19.5 10V18.0139L19.497 18.065L19.5 24.578L22.7763 21.2986C22.9752 21.0995 23.2183 21 23.5056 21C24.036 21 24.5 21.4313 24.5 21.9953C24.5 22.2607 24.4006 22.5261 24.2017 22.6919L19.1193 27.7806C18.9546 27.9269 18.7273 28 18.5 28C18.268 28 18.0028 27.9005 17.8038 27.7014L12.7983 22.6919C12.6326 22.5261 12.5 22.2607 12.5 21.9953C12.5 21.4313 12.964 21 13.4944 21C13.7596 21 14.0248 21.0995 14.2238 21.2986L17.5 24.578L17.4948 12.0003L17.5 11.9V10C17.5 7.79086 15.7091 6 13.5 6C11.2909 6 9.5 7.79086 9.5 10V16C9.5 16.5523 9.05228 17 8.5 17C7.94772 17 7.5 16.5523 7.5 16V10C7.5 6.68629 10.1863 4 13.5 4Z" fill="#1A1C1F"/>
</g>
<defs>
<clipPath id="clip0_2213_5424">
<rect width="32" height="32" fill="white"/>
</clipPath>
</defs>
</svg>

<svg xmlns="http://www.w3.org/2000/svg" width="32" height="32" fill="none"><g clip-path="url(#a)"><path fill="#1A1C1F" fill-rule="evenodd" d="M13.5 4a6 6 0 0 1 6 6v8.014l-.003.051.003 6.513 3.276-3.28a1 1 0 0 1 .73-.298c.53 0 .994.431.994.995 0 .266-.1.531-.298.697l-5.083 5.089A.94.94 0 0 1 18.5 28c-.232 0-.497-.1-.696-.299l-5.006-5.01a1.03 1.03 0 0 1-.298-.696c0-.564.464-.995.994-.995.266 0 .53.1.73.299l3.276 3.279L17.495 12l.005-.1V10a4 4 0 0 0-8 0v6a1 1 0 1 1-2 0v-6a6 6 0 0 1 6-6" clip-rule="evenodd"/></g><defs><clipPath id="a"><path fill="#fff" d="M0 0h32v32H0z"/></clipPath></defs></svg>
